!!!!SEGMENT: pl-kk--kk-i-10--002-004_pekiel-bartlomiej--missa-paschalis-sanctus.krn
!!!cenid: 16xx:1188
!!!COM: Pękiel, Bartłomiej
!!!COM-rismID: pe30105642
!!!CDT: <1633-~1670
!!!CNT: Polish
!!!OPR: Missa Paschalis
!!!OTL: Sanctus
!!!OMV: 004
!!!PDT:
!!!AGN: Sacred; Mass
!!!SMS-siglum: PL-Kk
!!!SMS-shelfmark: Kk.I.10
!!!SMS-shelfwork: 002-004 M
!!!SMS-variant:
!!!SMS-altvar:
!!!NIFC-rismSourceID: 1001151830
!!!NIFC-islandoraID: pl-kk:2434
!!!URL-pdf-islandora: https://repozytorium.nifc.pl/islandora/object/pl-kk%3A2434/datastream/PDF/view
!!!URL-scan: https://polish.musicsources.pl/pl/lokalizacje/galeria/rekopisy/5737 @EN{Scan on Polish Music Sources Website} @PL{Skany w portalu Dziedzictwo Muzyki Polskiej w otwartym dostępie}
!!!ONB-nifc: UWAGA: części Mszy: 1. Kyrie, 2. Et in terra, 3. Patrem, 4. Sanctus, 5. Agnus Dei. T1mus (skan 0007-0010), T2dus (0057-0060), B (0106-0109)
!!!AIN: 1 bass 2 tenor
!!!key:
**kern	**text	**kern	**text	**kern	**text
*part3	*part3	*part2	*part2	*part1	*part1
*staff3	*staff3	*staff2	*staff2	*staff1	*staff1
*Ibass	*	*Itenor	*	*Itenor	*
*I"Bassus.	*	*I"Tenor Secundus.	*	*I"Tenor Imus	*
*I'B	*	*I'T 2	*	*I'T 1	*
*clefF4	*	*clefC4	*	*clefC4	*
*k[]	*	*k[]	*	*k[]	*
*a:	*	*a:	*	*a:	*
*M2/1	*	*M2/1	*	*M2/1	*
*met(c|)	*	*met(c|)	*	*met(c|)	*
=1-	=1-	=1-	=1-	=1-	=1-
*all\right	*	*all\right	*	*all\right	*
*2\right	*	*2\right	*	*2\right	*
1.A	San-	1.A	San-	1.c	San-
!LO:TX:t=P:problem=kreska pseudotaktowa	!	!LO:TX:t=P:problem=kreska pseudotaktowa	!	!	!
2G#X\	-ctus	2B/	-ctus	2B\	-ctus
=2-	=2-	=2-	=2-	=2-	=2-
*	*	*	*ij	*	*ij
2A\	San-	1A	San-	2c\	San-
2F\	.	.	.	2d\	.
!LO:TX:t=P:problem=kreska pseudotaktowa	!	!LO:TX:t=P:problem=kreska pseudotaktowa	!	!	!
1E	-ct(us)	1G#X	-ctus	1B	-ctus
=3-	=3-	=3-	=3-	=3-	=3-
4r	.	4r	.	4r	.
*	*ij	*	*	*	*
!	!	!LO:TX:a:t=P:problem=# below	!	!	!
2E\	San-	2G#X/	San-	2B\	San-
!LO:TX:t=P:problem=kreska pseudotaktowa	!	!LO:TX:t=P:problem=kreska pseudotaktowa	!	!	!
4AA/	-ct(us)	4A/	-ctus	4c\	.
2GG/	San-	2B\	San-	2d\	.
!LO:TX:t=P:problem=kreska pseudotaktowa	!	!LO:TX:t=P:problem=kreska pseudotaktowa	!	!	!
2GG/	-ct(us)	2B\	-ctus	2d\	-ctus
=4-	=4-	=4-	=4-	=4-	=4-
4r	.	4r	.	4r	.
2E\	San-	2B\	San-	2e\	San-
!LO:TX:t=P:problem=kreska pseudotaktowa	!	!LO:TX:t=P:problem=kreska pseudotaktowa	!	!	!
4E\	-ct(us)	4B\	-ctus	4e\	-ctus
*	*	*	*	*lig	*
1BB	San-	2.B\	San-	1d	San-
.	.	4A/	-ctus	.	.
=5-	=5-	=5-	=5-	=5-	=5-
2C/	-ct(us)	2Gny/	San-	1c	.
!LO:TX:t=P:problem=kreska pseudotaktowa	!	!LO:TX:t=P:problem=kreska pseudotaktowa	!	!	!
2AA/	San-	2A/	.	.	.
*	*	*	*	*Xlig	*
*custos:GG	*	*	*	*	*
!LO:TX:t=P:problem=kreska pseudotaktowa	!	!	!	!	!
1GG	-ct(us)	1B	-ctus	1d	-ctus
*	*Xij	*	*Xij	*	*Xij
!LO:LB:g=original	!	!	!	!	!
=6-	=6-	=6-	=6-	=6-	=6-
4r	.	4r	.	4r	.
4.GG/	D(o-	4.B\	Do-	4.d\	D(o-
8GG/	-mi)-	8B\	-mi-	8d\	-mi)-
*	*	*custos:c	*	*	*
!	!	!LO:TX:t=P:problem=kreska pseudotaktowa	!	!	!
!LO:TX:t=P:problem=kreska pseudotaktowa	!	!	!	!	!
4GG/	-nus	4B\	-n(us)	4d\	-n(us)
2C/	DE-	2c\	DE-	2e\	DE-
4GG/	.	4B\	-Vs	4d\	-us
*	*	*	*	*custos:B	*
!LO:TX:t=P:problem=kreska pseudotaktowa	!	!	!	!	!
4AA/	-Vs	2A/	Sab-	4c\	.
!	!	!LO:LB:g=original	!	!LO:LB:g=original	!
=7-	=7-	=7-	=7-	=7-	=7-
4.E\	Sa-	.	.	4.B\	Sa-
.	.	4G#X/	-ba-	.	.
8E\	-ba-	.	.	8B\	-ba-
!LO:TX:t=P:problem=kreska pseudotaktowa	!	!LO:TX:t=P:problem=kreska pseudotaktowa	!	!	!
2AA/	-oth	2A/	-oth.	2c#X\	-oth
4r	.	4r	.	4r	.
4E\	Ple-	4G#X/	Ple-	4B\	Ple-
4E\	-ni	4G#/	-ni	4B\	-ni
!LO:TX:t=P:problem=kreska pseudotaktowa	!	!LO:TX:t=P:problem=kreska pseudotaktowa	!	!	!
4E\	su(n)t	4G#/	su(n)t	4B\	su(n)t
=8-	=8-	=8-	=8-	=8-	=8-
2A\	.	2A/	.	2cny\	cae-
4A\	Cae-	4A/	cae-	4c\	-li
!LO:TX:t=P:problem=kreska pseudotaktowa	!	!LO:TX:t=P:problem=kreska pseudotaktowa	!	!	!
4A\	-li	4A/	-li	4c\	&
2Gny\	&	2B\	&	4d\	ter-
.	.	.	.	8d\	-ra
.	.	.	.	8G/	&
!LO:TX:t=P:problem=kreska pseudotaktowa	!	!	!	!	!
2F\	ter-	2A/	ter-	2A/	ter-
=9-	=9-	=9-	=9-	=9-	=9-
1E	-ra	1G#X	-ra	1B	-ra
1ryy	.	1ryy	.	1ryy	.
=10-	=10-	=10-	=10-	=10-	=10-
*M3/1	*	*M3/1	*	*M3/1	*
1.A	glo-	1.A	gl(o-	1.c#X	Glo-
2A\	-ri-	2A/	-ri)-	2c#\	-ri-
*custos:D	*	*	*	*	*
!LO:TX:t=P:problem=kreska pseudotaktowa	!	!	!	!	!
!	!	!LO:TX:t=P:problem=kreska pseudotaktowa	!	!	!
1A	-a	1A	-a	1c#	-a
!LO:LB:g=original	!	!	!	!	!
=11-	=11-	=11-	=11-	=11-	=11-
*	*	*	*	*	*ij
1.D	glo-	1.A	gl(o-	1.d	Glo-
2D/	-ri-	2A/	-ri)-	2d\	-ri-
!LO:TX:t=P:problem=kreska pseudotaktowa	!	!LO:TX:t=P:problem=kreska pseudotaktowa	!	!	!
1D	-a	1A	-a	1d	-a
*	*	*	*	*	*Xij
=12-	=12-	=12-	=12-	=12-	=12-
0GG	Tu-	0B	Tu-	0d	Tu-
*	*	*custos:c	*	*custos:d	*
!LO:TX:t=P:problem=kreska pseudotaktowa	!	!	!	!	!
1GG	-a	1B	-a	1d	-a
!	!	!LO:LB:g=original	!	!LO:LB:g=original	!
=13-	=13-	=13-	=13-	=13-	=13-
1rD	.	1rA	.	1re	.
1rD	.	1rA	.	1re	.
!LO:TX:t=P:problem=kreska pseudotaktowa	!	!LO:TX:t=P:problem=kreska pseudotaktowa	!	!	!
1GG	O-	1B	O-	1d	O-
=14-	=14-	=14-	=14-	=14-	=14-
1.GG	-san-	1.B	-ſan-	1.d	-ſan-
2GG/	-na	2B\	-na	2d\	-na
!LO:TX:t=P:problem=kreska pseudotaktowa	!	!LO:TX:t=P:problem=kreska pseudotaktowa	!	!	!
1C	o-	1c	O-	1e	o-
=15-	=15-	=15-	=15-	=15-	=15-
1.GG	-ſan-	1.B	-ſan-	1.d	-ſan-
2GG/	-na	2B\	-na	2d\	-na
2.AA/	in	2.A/	in	2.cny\	in
!LO:TX:t=P:problem=kreska pseudotaktowa	!	!LO:TX:t=P:problem=kreska pseudotaktowa	!	!	!
4AA/	ex-	4A/	ex-	4c\	ex-
=16-	=16-	=16-	=16-	=16-	=16-
0E	-cel-	1G#X	-cel-	1B	-cel-
.	.	1G#	-ſis	1B	-ſis
!	!	!LO:TX:t=P:problem=kreska pseudotaktowa	!	!	!
1E	-ſis	1G#	Ho-	1B	o-
=17-	=17-	=17-	=17-	=17-	=17-
0A	in	0A	-san-	0c	-ſan-
!LO:TX:t=P:problem=kreska pseudotaktowa	!	!	!	!	!
1A	ex-	1A	-na	1c	-na
=18-	=18-	=18-	=18-	=18-	=18-
(>0G	-cel-	0B	in	0d	in
1F)	.	1A	ex-	1d	ex-
=19-	=19-	=19-	=19-	=19-	=19-
0E	ſis	0G#X	-cel-	0B	-cel-
*custos:E	*	*	*	*	*
!LO:TX:t=P:problem=kreska pseudotaktowa	!	!	!	!	!
1E	.	1G#	-ſis	1B	-ſis
!LO:LB:g=original	!	!	!	!	!
=20-	=20-	=20-	=20-	=20-	=20-
1r	.	1rA	.	1re	.
1.E	Be-	1.B	Be-	1.e	Be-
*	*	*custos:B	*	*custos:d	*
!	!	!LO:TX:t=P:problem=kreska pseudotaktowa	!	!	!
!LO:TX:t=P:problem=kreska pseudotaktowa	!	!	!	!	!
2E\	-ne-	2B\	-ne-	2e\	-ne-
!	!	!LO:LB:g=original	!	!LO:LB:g=original	!
=21-	=21-	=21-	=21-	=21-	=21-
1.BB	-di-	1.B	-di-	1.d#X	-di-
2BB/	-ctus	2B\	-ctus	2d#\	-ct(us)
!LO:TX:t=P:problem=kreska pseudotaktowa	!	!LO:TX:t=P:problem=kreska pseudotaktowa	!	!	!
1BB	qui	1B	qui	1d#	qui
=22-	=22-	=22-	=22-	=22-	=22-
1E	Ve-	1.B	ve-	1.e	ve-
1E	-nit	.	.	.	.
.	.	2B\	-nit	2e\	-nit
!LO:TX:t=P:problem=kreska pseudotaktowa	!	!	!	!	!
1E	qui	1B	in	1e	in
=23-	=23-	=23-	=23-	=23-	=23-
0AA	ve-	0c#X	no-	0e	no-
!LO:TX:t=P:problem=kreska pseudotaktowa	!	!LO:TX:t=P:problem=kreska pseudotaktowa	!	!	!
1AA	-nit	1c#	-mi-	1e	-mi-
=24-	=24-	=24-	=24-	=24-	=24-
1D	in	1A	-ne	1dny	-ne
1.D	no-	1.A	Do-	1.d	D(o-
!LO:TX:t=P:problem=kreska pseudotaktowa	!	!LO:TX:t=P:problem=kreska pseudotaktowa	!	!	!
2D/	-mi-	2A\	-mi-	2d\	-mi)-
=25-	=25-	=25-	=25-	=25-	=25-
0GG	-ne	0B	-ni	0d	-ni
!LO:TX:t=P:problem=kreska pseudotaktowa	!	!	!	!	!
1GG	in	1B	in	1d	in
=26-	=26-	=26-	=26-	=26-	=26-
0C	No-	0cny	no-	0e	no-
*custos:A	*	*	*	*	*
!LO:TX:t=P:problem=kreska pseudotaktowa	!	!	!	!	!
!	!	!LO:TX:t=P:problem=kreska pseudotaktowa	!	!	!
1GG	-mi-	1B	-mi-	1d	-mi-
!LO:LB:g=original	!	!	!	!	!
=27-	=27-	=27-	=27-	=27-	=27-
1AA	-ne	1A	-ne	1c	-ne
1.E	Do-	1.A	D(o-	1.B	Do-
!LO:TX:t=P:problem=kreska pseudotaktowa	!	!	!	!	!
2E\	-mi-	2G#X/	-mi)-	2B\	-(mi)-
=28-	=28-	=28-	=28-	=28-	=28-
!	!	!	!	!LO:N:acc=-	!
0AA;>,<	-ni	0A,	-ni	0cn	-ni
*	*	*custos:G	*	*	*
!	!	!LO:TX:t=P:problem=kreska pseudotaktowa	!	!	!
!LO:TX:t=P:problem=kreska pseudotaktowa	!	!	!	!	!
1AA	o-	1A	o-	1c	Ho-
!	!	!LO:LB:g=original	!	!	!
=29-	=29-	=29-	=29-	=29-	=29-
1.E	-ſan-	1.G#X	-san-	1.B	-ſan-
2E\	-na	2G#/	-na	2B\	-na
*	*ij	*	*ij	*	*ij
!LO:TX:t=P:problem=kreska pseudotaktowa	!	!LO:TX:t=P:problem=kreska pseudotaktowa	!	!	!
1E	o-	1G#	o-	1B	Ho-
!	!	!	!	!LO:LB:g=original	!
=30-	=30-	=30-	=30-	=30-	=30-
0A	-ſan-	0A	-san-	0c	-ſan-
!LO:TX:t=P:problem=kreska pseudotaktowa	!	!LO:TX:t=P:problem=kreska pseudotaktowa	!	!	!
1A	-na	1A	-na	1c	-na
*	*Xij	*	*Xij	*	*Xij
=31-	=31-	=31-	=31-	=31-	=31-
0G	in	0B	in	0d	In
!LO:TX:t=P:problem=kreska pseudotaktowa	!	!LO:TX:t=P:problem=kreska pseudotaktowa	!	!	!
1G	ex-	1B	ex-	1d	ex-
=32-	=32-	=32-	=32-	=32-	=32-
1.C	-cel-	1.c	-cel-	1.e	-cel-
2C/	-ſis	2c\	-ſis	2e\	-ſis
!LO:TX:t=P:problem=kreska pseudotaktowa	!	!LO:TX:t=P:problem=kreska pseudotaktowa	!	!	!
1C	Ho-	1c	o-	1e	Ho-
=33-	=33-	=33-	=33-	=33-	=33-
0C	-sa(n)-	0c	-ſan-	0e	-san-
!LO:TX:t=P:problem=kreska pseudotaktowa	!	!LO:TX:t=P:problem=kreska pseudotaktowa	!	!	!
1C	-na	1c	-na	1e	-na
=34-	=34-	=34-	=34-	=34-	=34-
2C/	in	0c	in	0e	in
2D/	.	.	.	.	.
2E\	e-	.	.	.	.
2F\	.	.	.	.	.
*custos:A	*	*	*	*	*
!LO:TX:t=P:problem=kreska pseudotaktowa	!	!	!	!	!
!	!	!LO:TX:t=P:problem=kreska pseudotaktowa	!	!	!
1G	.	1B	ex-	1d	ex-
!LO:LB:g=original	!	!	!	!	!
=35-	=35-	=35-	=35-	=35-	=35-
*col	*	*	*	*	*
1A	-ex-	0A	-cel-	1c	-cel-
*	*	*	*	*col	*
0E	-cel-	.	.	0B	.
.	.	1G#X	.	.	.
*Xcol	*	*	*	*	*
=36-	=36-	=36-	=36-	=36-	=36-
*M2/1	*	*M2/1	*	*M2/1	*
*met(c|)	*	*met(c|)	*	*Xcol	*
*	*	*	*	*met(c|)	*
2AA/	-ſis	00A;>	-ſis.	1c#X	-ſis
4A\	in	.	.	.	.
!LO:TX:t=P:problem=kreska pseudotaktowa	!	!	!	!	!
4G\	ex-	.	.	.	.
2F\	-cel-	.	.	4.d\	in
.	.	.	.	8d\	ex-
2C#X/	.	.	.	2.e\	-cel-
=37-	=37-	=37-	=37-	=37-	=37-
!LO:TX:t=P:problem=kreska pseudotaktowa	!	!	!	!	!
1D	-ſis.	.	.	.	.
.	.	.	.	8d\L	.
.	.	.	.	8c#\J	-ſis.
.	.	.	.	2d\	.
!LO:N:vis=00	!	!	!	!	!
1AA;;	.	.	.	1c#X;;	.
=-	=-	=-	=-	=-	=-
*-	*-	*-	*-	*-	*-
!!!system-decoration: [(s1,s2,s3)]
!!!RDF**kern: > = above
!!!RDF**kern: < = below
!!!EED: Antoni Szymański
!!!EEV: 2021-07-05
!!!ENC: Krzysztof Stępień
!!!END: 2021-06-23
